!!!!SEGMENT: pl-wtm--r-1549--002_stefani-jozef--msza-no-8-gloria.krn
!!!cenid: 18xx:1803
!!!COM: Stefani, Józef
!!!COM-rismID: pe30024097
!!!CDT: 1800/04/16-1876/03/19
!!!CNT: Polish
!!!OPR: Msza No 8
!!!OTL: Gloria
!!!OMV: 002
!!!PDT:
!!!AGN: Sacred; Mass
!!!SMS-siglum: PL-Wtm
!!!SMS-shelfmark: R 1549
!!!SMS-shelfwork: 001-002 M
!!!SMS-variant:
!!!SMS-altvar:
!!!NIFC-rismSourceID: 1001115167
!!!NIFC-rismChildID: 1001115167
!!!NIFC-islandoraID: pl-wtm:26643
!!!URL-pdf-islandora: https://repozytorium.nifc.pl/islandora/object/pl-wtm%3A26643/datastream/PDF/view
!!!URL-scan: https://polish.musicsources.pl/pl/lokalizacje/galeria/rekopisy/6350 @EN{Scan on Polish Music Sources Website} @PL{Skany w portalu Dziedzictwo Muzyki Polskiej w otwartym dostępie}
!!!ONB-nifc: UWAGA: części Mszy: 1. Kyrie, 2. Gloria, 3. Credo, 4. Sanctus, 5. Benedictus Terzetto, 6. Agnus Dei. W źródle Benedictus wpisany po Agnus Dei
!!!AIN: 4 empty 1 viola 1 violn 1 vox
!!!key:
**kern	**dynam	**kern	**dynam	**kern	**dynam	**kern	**dynam	**kern	**text	**kern	**text	**kern	**text	**dynam
*part7	*part7	*part6	*part6	*part5	*part5	*part4	*part4	*part3	*part3	*part2	*part2	*part1	*part1	*part1
*staff7	*	*staff6	*	*staff5	*	*staff4	*	*staff3	*staff3	*staff2	*staff2	*staff1	*staff1	*
*Iempty	*	*Iviola	*	*Iempty	*	*Ivioln	*	*Iempty	*	*Iempty	*	*Ivox	*	*
*I"[Baſso]	*	*I"[Viole]	*	*	*	*I"[Violini]	*	*	*	*	*	*I"[Voce]	*	*
*I'[b]	*	*I'[vla]	*	*	*	*I'[vl]	*	*	*	*	*	*I'[V]	*	*
*clefF4	*	*clefC3	*	*clefG2	*	*clefG2	*	*clefG2	*	*clefG2	*	*clefG2	*	*
*k[]	*	*k[]	*	*k[]	*	*k[]	*	*k[]	*	*k[]	*	*k[]	*	*
*C:	*	*C:	*	*C:	*	*C:	*	*C:	*	*C:	*	*C:	*	*
*M2/4	*	*M2/4	*	*M2/4	*	*M2/4	*	*M2/4	*	*M2/4	*	*M2/4	*	*
*>[A,B,B1,B,B1,B,B2,C]	*	*	*	*	*	*	*below	*	*	*	*	*	*	*
=1	=1	=1	=1	=1	=1	=1	=1	=1	=1	=1	=1	=1	=1	=1
*>A	*	*	*	*	*	*	*	*	*	*	*	*	*	*
!	!	!	!	!	!	!	!	!	!	!	!	!LO:TX:t=P:problem=opis boczny [Voce] w pionie	!	!
!	!	!	!	!LO:TX:t=unis	!	!	!	!	!	!	!	!LO:TX:t=P:problem=all\middle or right&colon; global	!	!
!LO:TX:t=P:problem=mixed beam	!	!LO:TX:t=P:problem=mixed beam	!	!LO:TX:t=P::problem=pierwsza grupa zapisana skrótem&colon; uniſ	!	!LO:TX:t=P:problem=opis boczny [Violini] między pięcioliniami	!	!	!	!	!	!LO:TX:a:t=Allegretto.	!	!
16GG'/LL	.	16G'/LL	f	16g'/LLyy	f	16g'/LL	f	2r	.	2r	.	2r	.	.
(16G\	.	(16g\	.	(16g/yy	.	(16g/	.	.	.	.	.	.	.	.
16F#X\	.	16f#X\	.	16f#X/yy	.	16f#X/	.	.	.	.	.	.	.	.
16G\JJ)	.	16g\JJ)	.	16g/JJ)yy	.	16g/JJ)	.	.	.	.	.	.	.	.
(16A\LL	.	(16a\LL	.	(16a/LL	.	(16a/LL	.	.	.	.	.	.	.	.
16G\)	.	16g\)	.	16g/)	.	16g/)	.	.	.	.	.	.	.	.
!	!	!	!	!LO:SIC:v:s=16fn	!	!	!	!	!	!	!	!	!	!
16Fn'\	.	16fn'\	.	16f#'/	.	16a'/	.	.	.	.	.	.	.	.
!LO:TX:t=P:problem=16E poprawione na 16D	!	!	!	!LO:SIC:v:s=16fn	!	!	!	!	!	!	!	!	!	!
16D'\JJ	.	16d'\JJ	.	16f#'/JJ	.	16b'/JJ	.	.	.	.	.	.	.	.
=2!|:	=2!|:	=2!|:	=2!|:	=2!|:	=2!|:	=2!|:	=2!|:	=2!|:	=2!|:	=2!|:	=2!|:	=2!|:	=2!|:	=2!|:
*>B	*	*	*	*	*	*	*	*	*	*	*	*	*	*
8C/	.	8c\L	.	(16e/LL	.	(>16cc/LL	.	4e/	3) Ie-	4g/	2.) Przed	4cc\	1.) Chwa-	.
.	.	.	.	16g/)	.	16g/)	.	.	.	.	.	.	.	.
8r	.	8c\J	.	16e'/	.	16cc'/	.	.	.	.	.	.	.	.
.	.	.	.	16e'/JJ	.	16cc'/JJ	.	.	.	.	.	.	.	.
8C/	.	8r	.	(16f/LL	.	(>16dd/LL	.	4f/	-mu	4a/	nim	4dd\	-łę	.
.	.	.	.	16a/)	.	16a/)	.	.	.	.	.	.	.	.
8r	.	8c\	.	16f'/	.	16dd'/	.	.	.	.	.	.	.	.
.	.	.	.	16f'/JJ	.	16dd'/JJ	.	.	.	.	.	.	.	.
=3	=3	=3	=3	=3	=3	=3	=3	=3	=3	=3	=3	=3	=3	=3
!	!	!	!	!	!	!	!	!LO:TX:t=P:tekst:problem=tylko poprawione na słońce	!	!	!	!	!	!
8C/	.	8r	.	(16a\LL	.	(16ff\LL	.	4a/	słoń-	4cc\	Ko-	4ff\	Pa-	.
.	.	.	.	16cc\)	.	16cc\)	.	.	.	.	.	.	.	.
8r	.	8c\	.	16a'\	.	16ff'\	.	.	.	.	.	.	.	.
.	.	.	.	16a'\JJ	.	16ff'\JJ	.	.	.	.	.	.	.	.
8C/	.	8r	.	(16g\LL	.	(16ee\LL	.	4g/	-ce	4cc\	-ło	4ee\	-na	.
.	.	.	.	16cc\)	.	16cc\)	.	.	.	.	.	.	.	.
8r	.	8c\	.	16g'\	.	16ee'\	.	.	.	.	.	.	.	.
.	.	.	.	16g'\JJ	.	16ee'\JJ	.	.	.	.	.	.	.	.
=4	=4	=4	=4	=4	=4	=4	=4	=4	=4	=4	=4	=4	=4	=4
8F\	.	8r	.	(16cc\LL	.	(16dd\LL	.	4f/	w hoł-	4cc\	czas	4.dd\	wdzięcz-	.
.	.	.	.	16a\)	.	16a\)	.	.	.	.	.	.	.	.
8r	.	8a\ 8f\	.	16cc'\	.	16dd'\	.	.	.	.	.	.	.	.
.	.	.	.	16cc'\JJ	.	16dd'\JJ	.	.	.	.	.	.	.	.
8F#X\	.	8r	.	(16cc\LL	.	(16dd\LL	.	4f#X/	-dzie	4a\	za-	.	.	.
.	.	.	.	16a\)	.	16a\)	.	.	.	.	.	.	.	.
8r	.	8a\ 8f#X\	.	16cc'\	.	16dd#X'\	.	.	.	.	.	8dd#X\	-nem	.
.	.	.	.	16cc'\JJ	.	16dd#'\JJ	.	.	.	.	.	.	.	.
=5	=5	=5	=5	=5	=5	=5	=5	=5	=5	=5	=5	=5	=5	=5
8G\	.	8r	.	(16cc\LL	.	(16ee\LL	.	4g/	świe-	4cc\	-trzy-	4ee\	pie-	.
.	.	.	.	16g\)	.	16g\)	.	.	.	.	.	.	.	.
8r	.	8g\	.	16cc'\	.	16ee'\	.	.	.	.	.	.	.	.
.	.	.	.	16cc'\JJ	.	16ee'\JJ	.	.	.	.	.	.	.	.
8G\	.	8r	.	(16b\LL	.	(16dd\LL	.	4g/	-ci	4b\	-ma	4ddn\	-niem	.
.	.	.	.	16g\)	.	16g\)	.	.	.	.	.	.	.	.
8r	.	8g\	.	16b'\	.	16dd'\	.	.	.	.	.	.	.	.
.	.	.	.	16b'\JJ	.	16dd'\JJ	.	.	.	.	.	.	.	.
=6	=6	=6	=6	=6	=6	=6	=6	=6	=6	=6	=6	=6	=6	=6
8A\L	.	(8a\L	.	16a/LL	.	(16cc/LL	.	8a/L	Wia-	4a/	pa-	4cc\	lu-	.
.	.	.	.	16e/	.	16e/)	.	.	.	.	.	.	.	.
8G\J	.	8g\J)	.	16a/	.	16cc'/	.	8g/J	.	.	.	.	.	.
.	.	.	.	16a/JJ	.	16cc'/JJ	.	.	.	.	.	.	.	.
16F#X\	.	16f#X\	.	16r	.	16r	.	8f#X/	-try	8a/	-dną	8dd\	-dy	.
*	*	*	*	*tremolo	*	*	*	*	*	*	*	*	*	*
16r	.	16r	.	16a/ 16d/	.	16dd\LL	.	.	.	.	.	.	.	.
*	*	*	*	*Xtremolo	*	*	*	*	*	*	*	*	*	*
16F#\	.	16f#\	.	16r	.	16r	.	8f#/	wy-	8a/	te	8cc\	a-	.
16r	.	16r	.	16a/ 16d/	.	16cc\JJ	.	.	.	.	.	.	.	.
!!LO:LB:g=original
=7	=7	=7	=7	=7	=7	=7	=7	=7	=7	=7	=7	=7	=7	=7
16G\	.	16g\	.	16r	.	16r	.	(8g/L	-ro-	(8g/L	swia-	4b\	-nio-	.
16r	.	16r	.	16g/	.	16b/	.	.	.	.	.	.	.	.
16D#X\	.	16d#X\	.	16r	.	16r	.	8d#X/J)	.	8f#X/J)	.	.	.	.
16r	.	16r	.	16f#X/	.	16b/	.	.	.	.	.	.	.	.
16E\	.	16e\	.	16r	.	16r	.	8e/	-ki	8g/	-ty	8b\	-ły	.
16r	.	16r	.	16g/	.	16b/	.	.	.	.	.	.	.	.
8C/	.	8e\	.	16r	.	(16.dd\LL	.	8c/	roz-	8a/	i	(16.dd\LL	roz-	.
.	.	.	.	16a/	.	.	.	.	.	.	.	.	.	.
.	.	.	.	.	.	32cc\JJk)	.	.	.	.	.	32cc\JJk)	.	.
=8	=8	=8	=8	=8	=8	=8	=8	=8	=8	=8	=8	=8	=8	=8
8D\	.	16r	.	16r	.	16r	.	(4d/	-no-	(4g/	słoń-	([>4b/	-znie-	.
.	.	16d\LL	.	16g/LL	.	16b/LL	.	.	.	.	.	.	.	.
8r	.	16d\	.	16g/	.	16b/	.	.	.	.	.	.	.	.
.	.	16d\JJ	.	16g/JJ	.	16b/JJ	.	.	.	.	.	.	.	.
16D\	.	16r	.	16r	.	16r	.	4c/)	.	4f#X/)	.	8.b/L]	.	.
16r	.	16c\	.	16f#X/	.	16b/|	.	.	.	.	.	.	.	.
16D\	.	16r	.	16r	.	16r	.	.	.	.	.	.	.	.
16r	.	16c\	.	16f#/	.	16a/|	.	.	.	.	.	16a/Jk)	.	.
=9	=9	=9	=9	=9	=9	=9	=9	=9	=9	=9	=9	=9	=9	=9
16GG/	.	16B/LL	.	16g/LL	.	16g/LL|	.	4B/	-szą	4g/	-ca	4g/	-ście	.
16r	.	16B/JJ	.	16g/JJ	.	16g/JJ|	.	.	.	.	.	.	.	.
16G\	.	16r	.	16r	.	16r	.	.	.	.	.	.	.	.
16r	.	16B/	.	16g/	.	16g/	.	.	.	.	.	.	.	.
16F\	.	16r	.	16r	.	16r	.	4r	.	4r	.	4r	.	.
16r	.	16c/	.	16fn/	.	16a/|	.	.	.	.	.	.	.	.
!	!	!	!	!LO:N:vis=8	!	!	!	!	!	!	!	!	!	!
16D\	.	16r	.	16r	.	16r	.	.	.	.	.	.	.	.
16r	.	16d\	.	16f/	.	16b/|	.	.	.	.	.	.	.	.
=10	=10	=10	=10	=10	=10	=10	=10	=10	=10	=10	=10	=10	=10	=10
8C/	.	8c\L	.	(16e/LL	.	(16cc/LL	.	4e/	Lu-	4g/	Ie-	4cc\	O-	.
.	.	.	.	16g/)	.	16g/)	.	.	.	.	.	.	.	.
8r	.	8c\J	.	16e'/	.	16cc'/	.	.	.	.	.	.	.	.
.	.	.	.	16e'/JJ	.	16cc'/JJ	.	.	.	.	.	.	.	.
8C/	.	8r	.	(16f/LL	.	(16dd/LL	.	4f/	-dy	4a/	-mu	4dd\	-ży-	.
.	.	.	.	16a/)	.	16a/)	.	.	.	.	.	.	.	.
8r	.	8c\	.	16f'/	.	16dd'/	.	.	.	.	.	.	.	.
.	.	.	.	16f'/JJ	.	16dd'/JJ	.	.	.	.	.	.	.	.
=11	=11	=11	=11	=11	=11	=11	=11	=11	=11	=11	=11	=11	=11	=11
8C/	.	8r	.	(16a/LL	.	(16ff\LL	.	4a/	ziem-	4cc\	tyl-	4ff\	-wie-	.
.	.	.	.	16cc/)	.	16cc\)	.	.	.	.	.	.	.	.
8r	.	8c\	.	16a'/	.	16ff'\	.	.	.	.	.	.	.	.
.	.	.	.	16a'/JJ	.	16ff'\JJ	.	.	.	.	.	.	.	.
8C/	.	8r	.	(16g/LL	.	(16ee\LL	.	4g/	-skie	4cc\	-ko	4ee\	-ni	.
.	.	.	.	16cc/)	.	16cc\)	.	.	.	.	.	.	.	.
8r	.	8c\	.	16g'/	.	16ee'\	.	.	.	.	.	.	.	.
.	.	.	.	16g'/JJ	.	16ee'\JJ	.	.	.	.	.	.	.	.
!!LO:PB:g=original
=12	=12	=12	=12	=12	=12	=12	=12	=12	=12	=12	=12	=12	=12	=12
!	!	!	!	!	!	!	!	!	!	!	!	!LO:TX:t=P:problem=wykreślony 1. takt systemu	!	!
8F\	.	8r	.	(16cc\LL	.	(16dd\LL	.	4f/	Ie-	4cc\	gra-	4.dd\	Ie-	.
.	.	.	.	16a\)	.	16a\)	.	.	.	.	.	.	.	.
8r	.	8a\ 8f\	.	16cc'\	.	16dd'\	.	.	.	.	.	.	.	.
.	.	.	.	16cc'\JJ	.	16dd'\JJ	.	.	.	.	.	.	.	.
8F#X\	.	8r	.	(16cc\LL	.	(16dd\LL	.	4f#X/	-go	4a/	-ni	.	.	.
.	.	.	.	16a\)	.	16a\)	.	.	.	.	.	.	.	.
8r	.	8a\ 8f#X\	.	16cc'\	.	16dd#X'\	.	.	.	.	.	8dd#X\	-go	.
.	.	.	.	16cc'\JJ	.	16dd#'\JJ	.	.	.	.	.	.	.	.
=13	=13	=13	=13	=13	=13	=13	=13	=13	=13	=13	=13	=13	=13	=13
!	!	!	!	!	!	!	!	!	!	!	!	!	!LO:MO:mod=tchnie-	!
8G\	.	8r	.	(16cc\LL	.	(16ee\LL	.	[4g/	dzie-	4cc\	nie	4ee\	thnie-	.
.	.	.	.	16g\)	.	16g\)	.	.	.	.	.	.	.	.
8r	.	8g\	.	16cc'\	.	16ee'\	.	.	.	.	.	.	.	.
.	.	.	.	16cc'\JJ	.	16ee'\JJ	.	.	.	.	.	.	.	.
!LO:TX:t=P:problem=chorągiewka poprawiona na belkę	!	!	!	!	!	!	!	!	!	!	!	!	!	!
8G\L	.	8r	.	(16b\LL	.	(16dd\LL	.	8g/L]	.	4b\	ma	4dd\	-niem	.
.	.	.	.	16g\)	.	16g\)	.	.	.	.	.	.	.	.
8F\J	.	8g\	.	16b'\	.	16dd'\	.	8fn/J	-ci	.	.	.	.	.
.	.	.	.	16b'\JJ	.	16dd'\JJ	.	.	.	.	.	.	.	.
=14	=14	=14	=14	=14	=14	=14	=14	=14	=14	=14	=14	=14	=14	=14
!	!	!	!	!	!	!	!	!	!	!LO:N:vis=8	!	!	!	!
8E\	.	8r	.	(16cc/LL	.	(16gg\LL	.	4e/	Cno-	4cc\	Ie-	4gg\	w nim	.
.	.	.	.	16g/)	.	16cc\)	.	.	.	.	.	.	.	.
8r	.	8e\	.	16cc'/	.	16gg'\	.	.	.	.	.	.	.	.
.	.	.	.	16cc'/JJ	.	16gg'\JJ	.	.	.	.	.	.	.	.
16D\	.	16r	.	16r	.	16r	.	8d/	-tą	8a/	-go	8gg\	i	.
16r	.	16d\	.	16a/	.	16gg\	.	.	.	.	.	.	.	.
16D\	.	16r	.	16r	.	16r	.	8d/	Ku	8a/	iest	8ff\	dla	.
16r	.	16d\	.	16a/	.	16ff\	.	.	.	.	.	.	.	.
=15	=15	=15	=15	=15	=15	=15	=15	=15	=15	=15	=15	=15	=15	=15
8G\	.	8r	.	(16cc/LL	.	(16ee\LL	.	4g/	nie-	4cc\	wiecz-	4ee\	Nie-	.
.	.	.	.	16g/)	.	16g\)	.	.	.	.	.	.	.	.
8r	.	8g\	.	16cc'/	.	16ee'\	.	.	.	.	.	.	.	.
.	.	.	.	16cc'/JJ	.	16ee'\JJ	.	.	.	.	.	.	.	.
16F#X\	.	16r	.	16r	.	16r	.	8f#X/	-mu	8cc\	-ność	8dd#X\	-go	.
16r	.	16a\ 16f#X\	.	16cc\	.	16dd#X\	.	.	.	.	.	.	.	.
16F#\	.	16r	.	16r	.	16r	.	8f#/	się	8cc\	bez	8dd#\	ie-	.
16r	.	16a\ 16f#\	.	16cc\	.	16dd#\	.	.	.	.	.	.	.	.
!!LO:LB:g=original
=16	=16	=16	=16	=16	=16	=16	=16	=16	=16	=16	=16	=16	=16	=16
8G\	.	8r	.	(16cc\LL	.	(16ee\LL	.	(4g/	wzno-	(4cc\	Koń-	(4.ee\	-ste-	.
.	.	.	.	16e\)	.	16g\)	.	.	.	.	.	.	.	.
8r	.	8g\	.	16cc'\	.	16ee'\	.	.	.	.	.	.	.	.
.	.	.	.	16cc'\JJ	.	16ee'\JJ	.	.	.	.	.	.	.	.
16G#X\	.	16r	.	16r	.	16r	.	4g#X/)	.	4b\)	.	.	.	.
!	!	!	!	!LO:TX:t=P:problem=dopisana główka nuty e	!	!	!	!	!	!	!	!	!	!
16r	.	16g#X\	.	16b\	.	16ee\	.	.	.	.	.	.	.	.
16G#\	.	16r	.	16r	.	16r	.	.	.	.	.	8dd\)	.	.
!	!	!	!	!LO:TX:t=P:problem=dopisana główka nuty e	!	!	!	!	!	!	!	!	!	!
16r	.	16g#\	.	16b\	.	16dd\	.	.	.	.	.	.	.	.
=17	=17	=17	=17	=17	=17	=17	=17	=17	=17	=17	=17	=17	=17	=17
8A\	.	8r	.	(16a/LL	.	(16cc\LL	.	4a/	-szą	4a\	-ca	4cc\	-ście	.
.	.	.	.	16e/)	.	16e\)	.	.	.	.	.	.	.	.
8r	.	8a\	.	16a'/	.	16cc'\	.	.	.	.	.	.	.	.
.	.	.	.	16a'/JJ	.	16cc'\JJ	.	.	.	.	.	.	.	.
!	!	!LO:N:vis=16	!	!	!	!	!	!	!	!	!	!	!	!
(8G\L	.	8r	.	(16b/LL	.	(16dd\LL	.	(8a/L	Cno-	4b\	Ie-	4dd\	w nim	.
.	.	.	.	16g/)	.	16g\)	.	.	.	.	.	.	.	.
8Fn\J	.	8g\	.	16b'/	.	16dd'\	.	8gn/J)	.	.	.	.	.	.
.	.	.	.	16b'/JJ	.	16dd'\JJ	.	.	.	.	.	.	.	.
=18	=18	=18	=18	=18	=18	=18	=18	=18	=18	=18	=18	=18	=18	=18
8E\)	.	8r	.	(16cc\LL	.	(16gg\LL	.	4e/	-tą	4cc\	-go	4.gg\	i	.
.	.	.	.	16g\)	.	16cc\)	.	.	.	.	.	.	.	.
8r	.	8e\	.	16cc'\	.	16gg'\	.	.	.	.	.	.	.	.
.	.	.	.	16cc'\JJ	.	16gg'\JJ	.	.	.	.	.	.	.	.
16D\	.	16r	.	16r	.	16r	.	4d/	Ku	4a/	iest	.	.	.
16r	.	16d\	.	16a/	.	16gg\	.	.	.	.	.	.	.	.
16D\	.	16r	.	16r	.	16r	.	.	.	.	.	8ff\	dla	.
16r	.	16d\	.	16a/	.	16ff\	.	.	.	.	.	.	.	.
=19	=19	=19	=19	=19	=19	=19	=19	=19	=19	=19	=19	=19	=19	=19
8G\	.	8r	.	(16cc\LL	.	(16ee\LL	.	4g/	Nie-	4cc\	wiecz-	4ee\	nie-	.
.	.	.	.	16g\)	.	16g\)	.	.	.	.	.	.	.	.
8r	.	8g\	.	16cc'\	.	16ee'\	.	.	.	.	.	.	.	.
.	.	.	.	16cc'\JJ	.	16ee'\JJ	.	.	.	.	.	.	.	.
16F#X\	.	16r	.	16r	.	16r	.	8f#X/	-mu	8cc\	-ność	8dd#X\	-go	.
16r	.	16a\ 16f#X\	.	16cc\	.	16dd#X\	.	.	.	.	.	.	.	.
16F#\	.	16r	.	16r	.	16r	.	8f#/	się	8cc\	bez	8dd#\	ie-	.
16r	.	16a\ 16f#\	.	16cc\	.	16dd#\	.	.	.	.	.	.	.	.
=20	=20	=20	=20	=20	=20	=20	=20	=20	=20	=20	=20	=20	=20	=20
8G\	.	8r	.	16cc/LL	.	(16ee\LL	.	(4g/	wzno-	(4cc\	Koń-	([4ee\	-ste-	.
.	.	.	.	16g/	.	16g\)	.	.	.	.	.	.	.	.
8r	.	8g\	.	16cc/	.	16ee'\	.	.	.	.	.	.	.	.
.	.	.	.	16cc/JJ	.	16ee'\JJ	.	.	.	.	.	.	.	.
16G\	.	16r	.	16r	.	16r	.	4fn/)	.	4b\)	.	8.ee\L]	.	.
16r	.	16f\	.	16b\	.	16ee\	.	.	.	.	.	.	.	.
16GG/	.	16r	.	16r	.	16r	.	.	.	.	.	.	.	.
16r	.	16f\	.	16b\	.	16dd\	.	.	.	.	.	16ddn\Jk)	.	.
!!LO:LB:g=original
=21	=21	=21	=21	=21	=21	=21	=21	=21	=21	=21	=21	=21	=21	=21
*>B1	*	*	*	*	*	*	*	*	*	*	*	*	*	*
8C/	.	16r	.	16r	.	16r	.	4e/	-szą.	4cc\	-ca.	4cc\	-ście.	.
.	.	16c\LL	.	16e/LL	.	16cc\LL	.	.	.	.	.	.	.	.
8r	.	16c\	.	16e/	.	16cc\	.	.	.	.	.	.	.	.
.	.	16c\JJ	.	16e/JJ	.	16cc\JJ	.	.	.	.	.	.	.	.
4A\	.	16r	.	16r	.	16r	.	4r	.	4r	.	4r	.	.
.	.	16d\LL	.	16f#X/LL	.	16cc\LL	.	.	.	.	.	.	.	.
.	.	16d\	.	16f#/	.	16cc\	.	.	.	.	.	.	.	.
.	.	16d\JJ	.	16f#/JJ	.	16cc\JJ	.	.	.	.	.	.	.	.
=22	=22	=22	=22	=22	=22	=22	=22	=22	=22	=22	=22	=22	=22	=22
16G'\	.	16d\|	.	16g/	.	16b'\	.	2r	.	2r	.	2r	.	.
!	!	!	!	!LO:TX:t=P::problem=grupa zapisana skrótem&colon; uniſ	!	!	!	!	!	!	!	!	!	!
!	!	!	!	!LO:TX:t=unis	!	!	!	!	!	!	!	!	!	!
(16G\LL	.	(16g\LL|	.	(16g'/LLyy	.	(16g'/LL	.	.	.	.	.	.	.	.
16F#X\	.	16f#X\	.	16f#X/yy	.	16f#X/	.	.	.	.	.	.	.	.
16G\JJ)	.	16g\JJ)	.	16g/JJ)yy	.	16g/JJ)	.	.	.	.	.	.	.	.
(16A\LL	.	(16a\LL	.	(16a/LL	.	(16a/LL	.	.	.	.	.	.	.	.
16G\)	.	16g\)	.	16g/JJ)	.	16g/)	.	.	.	.	.	.	.	.
16Fn'\	.	16fn'\	.	16fn'/LL	.	16a'/	.	.	.	.	.	.	.	.
16D'\JJ	.	16d'\JJ	.	16f'/JJ	.	16b'/JJ	.	.	.	.	.	.	.	.
=23:|!	=23:|!	=23:|!	=23:|!	=23:|!	=23:|!	=23:|!	=23:|!	=23:|!	=23:|!	=23:|!	=23:|!	=23:|!	=23:|!	=23:|!
*>B2	*	*	*	*	*	*	*	*	*	*	*	*	*	*
8C/	.	8e\	.	8cc\	.	8cc\	.	2ryy	.	2ryy	.	2ryy	.	.
8r	.	8r	.	8r	.	8r	.	.	.	.	.	.	.	.
[4F\	.	[4f\	.	[4f/	.	[4a/	.	.	.	.	.	.	.	.
=24	=24	=24	=24	=24	=24	=24	=24	=24	=24	=24	=24	=24	=24	=24
!	!	!	!	!	!	!	!LO:HP:b	!	!	!	!	!	!	!
(8F\L]	.	(4f\]	.	(8f/L]	.	(8a\L]	<	2ryy	.	2ryy	.	2ryy	.	.
8C\	.	.	.	8a/	.	8cc\	.	.	.	.	.	.	.	.
8AA\	.	8a\L	.	8cc/	.	8ff\	.	.	.	.	.	.	.	.
8FF\J	.	8cc\J	.	8ff/J	.	8aa\J	[[	.	.	.	.	.	.	.
=25	=25	=25	=25	=25	=25	=25	=25	=25	=25	=25	=25	=25	=25	=25
*	*	*2\right	*	*2\right	*	*2\right	*	*	*	*	*	*	*	*
!	!	!LO:TX:t=P:problem=2\right&colon; global	!	!LO:TX:t=P:problem=2\right&colon; global	!	!LO:TX:t=P:problem=2\right&colon; global	!LO:HP:b	!	!	!	!	!	!	!
2C/ 2CC;/)	.	2cc;\)	.	2ee;\)	.	2ccc;\)	>]	2ryy	.	2ryy	.	2ryy	.	.
!!LO:LB:g=original
=26||	=26||	=26||	=26||	=26||	=26||	=26||	=26||	=26||	=26||	=26||	=26||	=26||	=26||	=26||
*k[f#]	*	*k[f#]	*	*k[f#]	*	*k[f#]	*	*k[f#]	*	*k[f#]	*	*k[f#]	*	*
*M4/4	*	*M4/4	*	*M4/4	*	*M4/4	*	*M4/4	*	*M4/4	*	*M4/4	*	*
*met(c)	*	*met(c)	*	*met(c)	*	*met(c)	*	*met(c)	*	*met(c)	*	*met(c)	*	*
*>C	*	*	*	*	*	*	*	*	*	*	*	*	*	*
!	!	!	!	!	!	!	!	!	!	!	!	!LO:TX:a:t=maestoso.	!	!
!	!	!	!	!	!	!	!	!	!	!	!	!LO:TX:a:t=Graduale	!	!LO:DY:a
.	f	.	.	.	.	.	.	.	.	.	.	.	.	.
4G\|	.	4g\	.	4g/	.	4g/	f	4g/	.	4g/	2.) U-	4g/	1.) Po-	f
=27	=27	=27	=27	=27	=27	=27	=27	=27	=27	=27	=27	=27	=27	=27
!	!	!LO:TX:t=P::problem=t. 27-29 zapisany odnośnikiem&colon; col b	!	!LO:TX:t=P::problem=t. 27 zpaisany skrótem&colon; uniſ	!	!	!	!	!	!	!	!	!	!
!	!	!	!	!LO:TX:t=unis	!	!	!	!	!	!	!	!	!	!
4.G\|	.	4.g\yy|	.	4.g/yy|	.	4.g/|	.	4.g/	.	4.g/	-znay-	4.g/	-wstań-	.
8d\|	.	8dd\yy|	.	8dd\yy|	.	8dd\|	.	8d/	.	8dd\	-cie	8dd\	-cie	.
(4Bt\	.	(4bt\yy	.	(4bt\yy	.	(4bt\	.	4B/	.	4b\	pra-	4b\	świa-	.
8.A\L)	.	8.a\L)yy	.	8.a/L)yy	.	8.a/L)	.	8.A/	.	8.a/	-wdę	8.a/	-tło-	.
16G\Jk|	.	16g\Jkyy|	.	16g/Jkyy|	.	16g/Jk|	.	16G/	.	16g/	w tem	16g/	-ści	.
=28	=28	=28	=28	=28	=28	=28	=28	=28	=28	=28	=28	=28	=28	=28
4..C\|	.	4..c\yy|	.	[4g/	.	([8ee\L	.	(4.c/	.	(4.g/	sło-	(4.ee\	Sy-	.
*	*	*	*	*	*	*Xtuplet	*	*	*	*	*	*	*	*
.	.	.	.	.	.	40ee\LL]	.	.	.	.	.	.	.	.
.	.	.	.	.	.	40ff#\	.	.	.	.	.	.	.	.
.	.	.	.	.	.	40ee\	.	.	.	.	.	.	.	.
.	.	.	.	.	.	40dd#X\	.	.	.	.	.	.	.	.
.	.	.	.	.	.	40ee\JJJ)	.	.	.	.	.	.	.	.
.	.	.	.	8.g/L]	.	8.ee\L	.	.	.	.	.	.	.	.
.	.	.	.	.	.	.	.	8e/)	.	8cc\)	.	8gg\)	.	.
16E\|	.	16e\yy|	.	16cc/Jk	.	16gg\Jk|	.	.	.	.	.	.	.	.
!	!	!	!	!	!	!LO:SIC:v:s=4ddn	!	!	!	!	!	!	!	!
4G\	.	4g\yy	.	4b\	.	4dd#\	.	4g/	.	4b\	-wie	4dd\	-ny	.
!	!	!	!	!	!	!LO:SIC:v:s=4ddn	!	!	!	!	!	!	!	!LO:DY:a
.	.	.	.	.	p	.	p	.	.	.	.	.	.	p
4G\	p	4g\yy	p	4b\	.	4dd#\	.	4g/	.	4b\	My	4dd\	Po-	.
=29	=29	=29	=29	=29	=29	=29	=29	=29	=29	=29	=29	=29	=29	=29
*2\right	*	*	*	*	*	*	*	*	*	*	*	*	*	*
2F#\	.	2f#\yy	.	8r	.	8r	.	4.f#/	.	4.a/	wszys-	4.dd\	-kor-	.
.	.	.	.	(8a'/L	.	8dd'\L	.	.	.	.	.	.	.	.
.	.	.	.	8a'/	.	(8dd\	.	.	.	.	.	.	.	.
!	!	!	!	!	!	!LO:TX:t=P:problem=chorągiewka poprawiona na belkę	!	!	!	!	!	!	!	!
.	.	.	.	8a'/J)	.	8cc\J)	.	8f#/	.	8a/	-cy	8cc\	-nem	.
8G\L|	.	8g\L|	.	8g/L|	.	8b\	.	8g/L	.	8g/L	bra-	4b\	czu-	.
(8D#X\	.	(8d#X\	.	(8f#/	.	4b\|	.	8d#X/J	.	8f#/J	.	.	.	.
8E\)	.	8e\)	.	8g/)	.	.	.	8e/	.	8g/	-cia	8b\	-ciem	.
!	!	!	!	!	!	!LO:TX:t=P:problem=niejednoznaczny zapis akcent/diminuendo	!	!	!	!	!	!LO:TX:t=P:problem=niejednoznaczny zapis akcent/diminuendo	!	!
8C\J|	.	8e\J|	.	8a/J|	.	(16.dd^<\LL	.	8c/	.	8a/	ie-	(16.dd^\LL	prze-	.
.	.	.	.	.	.	32cc\JJk)	.	.	.	.	.	32cc\JJk)	.	.
=30	=30	=30	=30	=30	=30	=30	=30	=30	=30	=30	=30	=30	=30	=30
4D\	.	[2d\	.	([8g/L	.	([8b\L	.	2d/	.	4.gSSs/	-ste-	4.bSsS\	-ię-	.
.	.	.	.	32g/LL]	.	32b\LL]	.	.	.	.	.	.	.	.
.	.	.	.	32a/	.	32cc\	.	.	.	.	.	.	.	.
.	.	.	.	32g/	.	32b\	.	.	.	.	.	.	.	.
.	.	.	.	32f#/JJJ)	.	32a\JJJ)	.	.	.	.	.	.	.	.
4DD/	.	.	.	8.g/L	.	8.b\L	.	.	.	.	.	.	.	.
.	.	.	.	.	.	.	.	.	.	8a/	.	8cc\	.	.
.	.	.	.	16a/Jk	.	16cc\Jk|	.	.	.	.	.	.	.	.
4D\	.	4d\]	.	4f#/	.	4a\	.	4d/	.	4f#/	-śmy	4a/	-te	.
4G\	.	4g\	.	4g/	.	4b\	.	4g/	.	4g/	My	4b/	Pan	.
!!LO:PB:g=original
=31	=31	=31	=31	=31	=31	=31	=31	=31	=31	=31	=31	=31	=31	=31
!	!	!	!	!	!	!	!	!	!	!	!	!	!	!LO:DY:a
4.E\|	.	4.e\	.	[2.g/	.	4.cc\|	.	4.e/	.	4.g/	wszys-	4.cc\	z gor-	<
8BB/|	.	8B/|	.	.	.	8dd\|	<	8B/	.	8g/	-cy	8dd\	-nej	.
8.C/L|	.	8.c/L|	.	.	.	8.ee\L|	.	8.c/L	.	4g/	Ie-	8.ee\L	Nie-	.
16BB/K|	.	16B/K|	.	.	.	16dd\K|	.	16B/Jk	.	.	.	16dd\Jk	.	.
8.C/|	.	8.c/|	.	8.g/L]	.	8.ee\|	.	8.c/	.	8.g/	-go	8.ee\	-ba	.
16AA/Jk|	.	16A/Jk|	.	16cc/Jk|	.	16ff#\Jk|	[[	16A/	.	16cc/	Sy-	16ff#\	Kra-	[[
=32	=32	=32	=32	=32	=32	=32	=32	=32	=32	=32	=32	=32	=32	=32
!	!	!	!	!	!	!	!	!	!	!	!	!	!	!LO:DY:a
!	!	!	!LO:DY:rj	!	!	!LO:TX:t=P:problem=odnośnik 1. błędnie w t. 32 zamiast w t. 33	!LO:DY:rj	!	!	!	!	!	!	!LO:DY:a
8GG/L	f	8G/L	f >	2b\	>	(4.gg\	f >	2G/	.	2b/	-no-	(4.gg\	-i-	f >
8GG/	.	(8G/	]	.	.	.	.	.	.	.	.	.	.	.
8BB/	.	8B/	.	.	.	.	.	.	.	.	.	.	.	.
8D/J	.	8d/J)	.	.	.	16ff#\LL	]	.	.	.	.	16ff#\LL	.	.
.	.	.	.	.	.	16ee\JJ)	.	.	.	.	.	16ee\JJ)	.	.
4G\	.	4g\	.	4b\	]	4dd\	.	4G/	.	4b/	-wie	4dd\	-ny	]
.	p	.	p	.	.	.	p	.	.	.	.	.	.	.
(8G\L	.	(8g\L	.	[4g/	.	(4b\|	.	(8g/L	.	4g/	Mi-	4b\	o-	.
8Fn\J)	.	8fn\J	.	.	.	.	.	8fn/J)	.	.	.	.	.	.
=33	=33	=33	=33	=33	=33	=33	=33	=33	=33	=33	=33	=33	=33	=33
!	!	!	!	!	!	!LO:TX:t=P:problem=odnośnik 2. błędnie w t. 33 zamiast w t. 34	!	!	!	!	!	!	!	!LO:DY:a
4E\	.	4e\)	.	4g/]	.	4cc\)	.	2e/	.	2g/	-ło-	(4..cc\	-gła-	<
8.r	.	8.r	.	8.r	.	8.r	.	.	.	.	.	.	.	.
.	f	.	f	.	.	.	f	.	.	.	.	.	.	.
16E\	.	16e\	.	16cc/ 16g/|	.	16gg\ 16cc\|	.	.	.	.	.	16gg\)	.	.
!	!	!	!	!LO:N:vis=4	!	!	!	!	!	!	!	!	!	!
!	!	!LO:N:vis=4	!	!	!	!	!	!	!	!	!	!	!	!
4E\	.	8e\	.	8cc/ 8g/|	.	4gg\ 4cc\|	.	4e/	.	4g/	-ścią	4gg\	-sza	[
.	.	8r	.	8r	.	.	p	.	.	.	.	.	.	.
.	p	.	p	.	.	.	.	.	.	.	.	.	.	.
(4E-X\	.	(4e-X\	.	[4g/	.	(4cc\|	.	4e-X/	.	4g/	mi-	4cc\	o-	.
=34	=34	=34	=34	=34	=34	=34	=34	=34	=34	=34	=34	=34	=34	=34
!	!	!	!	!	!	!	!	!	!	!	!	!	!	!LO:DY:a
4D\)	.	4d\)	.	4g/]	.	4b\)	.	2d/	.	2g/	-ło-	(4..b\	-gła-	<
8.r	.	8.r	.	8.r	.	8.r	.	.	.	.	.	.	.	.
.	.	.	f	.	.	.	f	.	.	.	.	.	.	.
16D\	.	16d\|	.	16b/ 16g/	.	16gg\ 16b'\	.	.	.	.	.	16gg\)	.	.
4D\	.	4d\|	.	4b/ 4g/	.	4gg\ 4b'\	.	4d/	.	4g/	-ścią	4gg\	-sza	[
!	!	!LO:TX:t=P:łuk:problem	!	!LO:TX:t=P:łuk:problem	!	!	!	!	!	!	!	!	!	!LO:DY:a
.	.	.	p	.	.	.	p	.	.	.	.	.	.	p
4D\	.	(4d\	.	4g/	.	4b\|	.	4d/	.	[4g/	Chwa-	(4b\	Na-	.
=35	=35	=35	=35	=35	=35	=35	=35	=35	=35	=35	=35	=35	=35	=35
4C\	.	8r	.	8r	.	8r	.	2c/	.	2g/]	.	4.a\	.	.
.	.	8e\L 8c\)	.	8a/L 8g/	.	8a'\L	.	.	.	.	.	.	.	.
4r	.	8e\ 8c\	.	8a/ 8g/	.	8a'\	.	.	.	.	.	.	.	.
.	.	8e\J 8c\	.	8a/J 8g/	.	8ee'\J	.	.	.	.	.	8ee\)	.	.
8r	.	8r	.	8r	.	8r	.	4d/	.	4f#/	-łę	4dd\	-u-	.
8D\	.	8d\	.	8a/ 8f#/	.	8dd'\	.	.	.	.	.	.	.	.
8r	.	8r	.	8r	.	8r	.	4d/	.	4f#/	Mu	4cc\	-ki	.
8D\	.	8d\	.	8a/ 8f#/	.	8cc'\	.	.	.	.	.	.	.	.
!!LO:LB:g=original
=36	=36	=36	=36	=36	=36	=36	=36	=36	=36	=36	=36	=36	=36	=36
*	*	*	*	*	*	*	*	*	*	*	*	*2\right	*	*
!	!	!	!	!	!	!	!	!	!	!	!	!LO:TX:t=P:problem=wykreślony tekst	!	!
!	!	!	!	!	!	!	!	!	!	!	!	!	!	!LO:DY:a
4E\	.	8r	.	8r	.	8r	.	2e/	.	2g/	wznieś-	2b\	świę-	>
!	!	!	!	!	!	!	!LO:DY:a	!	!	!	!	!	!	!
.	.	8e\L	.	8g/L	.	8b\L	>	.	.	.	.	.	.	.
4r	.	8e\	.	8g/	.	8b\	.	.	.	.	.	.	.	.
.	.	8e\J	.	8g/J	.	8b\J	]	.	.	.	.	.	.	.
8r	.	8r	.	8r	.	8r	.	4e/	.	4g/	-my	4b\	-te	]
8E\	.	8e\	.	8g/	.	8b\	.	.	.	.	.	.	.	.
8r	.	8r	.	8r	.	8r	.	4fn/	.	4g/	Mi-	4b\	o-	.
8Fn\	.	8fn\	.	8g/	.	(8b\	.	.	.	.	.	.	.	.
=37	=37	=37	=37	=37	=37	=37	=37	=37	=37	=37	=37	=37	=37	=37
!LO:TX:t=P:problem=t. 37-38 zapisany odnośnikiem do t. 33-34	!	!LO:TX:t=P:problem=t. 37-38 zapisany odnośnikiem do t. 33-34	!	!LO:TX:t=P:problem=t. 37-38 zapisany odnośnikiem do t. 33-34	!	!	!	!	!	!	!	!	!	!LO:DY:a
4E\yy	.	4e\yy	.	4g/yy	.	4cc\)	.	2e/	.	2g/	-ło-	(4..cc\	-gła-	<
8.ryy	.	8.ryy	.	8.ryy	.	8.r	.	.	.	.	.	.	.	.
16E\yy	f	16e\yy	f	16ccyy/ 16g/yy|	.	16gg\ 16cc\	f	.	.	.	.	16gg\)	.	.
!	!	!	!	!LO:N:vis=4	!	!	!	!	!	!	!	!	!	!
!	!	!LO:N:vis=4	!	!	!	!	!	!	!	!	!	!	!	!
4E\yy	.	8e\yy	.	8ccyy/ 8g/yy|	.	4gg\ 4cc\	.	4e/	.	4g/	-ścią	4gg\	-sza	[
.	.	8ryy	.	8ryy	.	.	.	.	.	.	.	.	.	.
(4E-X\yy	p	(4e-X\yy	p	[4g/yy	.	(4cc\	p	4e-X/	.	4g/	mi-	4cc\	O-	.
=38	=38	=38	=38	=38	=38	=38	=38	=38	=38	=38	=38	=38	=38	=38
!	!	!	!	!	!	!	!	!	!	!	!	!	!	!LO:DY:a
4D\)yy	.	4d\)yy	.	4g/]yy	.	4b\)	.	2d/	.	2g/	-ło-	(4..b\	-gła-	<
8.ryy	.	8.ryy	.	8.ryy	.	8.r	.	.	.	.	.	.	.	.
16D\yy	.	16d\yy|	f	16byy/ 16g/yy	.	16gg\ 16b'\	f	.	.	.	.	16gg\)	.	.
4D\yy	.	4d\yy|	.	4byy/ 4g/yy	.	4gg\ 4b\	.	4d/	.	4g/	-ścią	4gg\	-sza	[
!	!	!LO:TX:t=P:łuk:problem	!	!LO:TX:t=P:łuk:problem	!	!	!	!	!	!	!	!	!	!LO:DY:a
.	.	.	.	.	.	.	.	.	.	.	.	.	.	f
4D\yy	.	(4d\yy	p	[4g/yy	.	(4b\	p	(4d/	.	[4g/	chwa-	(4b\	Na-	.
=39	=39	=39	=39	=39	=39	=39	=39	=39	=39	=39	=39	=39	=39	=39
4C/	.	4e\ 4c\)	.	4g/]	.	4a/)	.	4c/)	.	4g/]	.	4a\)	.	.
8.C/L	.	8.e\L 8.c\|	.	8.g/L|	.	8.a/L|	.	8.c/	.	8.g/	-łę	8.a\	-u-	.
16C/Jk	.	16e\Jk 16c\|	.	16g/Jk|	.	16a/Jk|	.	16c/	.	16g/	Mu	16a\	-ki	.
.	.	.	.	.	f	.	f	.	.	.	.	.	.	.
*tremolo	*	*tremolo	*	*tremolo	*	*	*	*	*	*	*	*	*	*
8D\L	.	8d\L 8c\	.	8f#/L	.	8dd\L|	.	2d/	.	2f#/	wznie-	2dd\	świę-	.
8D\	.	8d\ 8c\	.	8f#/	.	(16cc#X\L	.	.	.	.	.	.	.	.
.	.	.	.	.	.	16dd\JJ	.	.	.	.	.	.	.	.
8D\	.	8d\ 8c\	.	8f#/	.	16ee\LL	.	.	.	.	.	.	.	.
.	.	.	.	.	.	16dd\	.	.	.	.	.	.	.	.
8D\J	.	8d\J 8c\	.	8f#/J	.	16ccn\	.	.	.	.	.	.	.	.
.	.	.	.	.	.	16a\JJ)	.	.	.	.	.	.	.	.
*Xtremolo	*	*Xtremolo	*	*Xtremolo	*	*	*	*	*	*	*	*	*	*
!!LO:PB:g=original
=40	=40	=40	=40	=40	=40	=40	=40	=40	=40	=40	=40	=40	=40	=40
*	*	*^	*	*	*	*	*	*	*	*	*	*	*	*
4G\	.	4d/	4B\	.	4g/	.	4g/	.	4g/	.	4g/	-śmy.	4g/	-te	.
!LO:TX:a:t=Vcelli	!	!	!	!	!	!	!	!	!	!	!	!	!	!	!
4G\	.	4r	4ryy	.	4r	.	4r	.	4r	.	4r	.	4r	.	.
[2g\	.	8rF	2ryy	.	8r	.	8r	.	2r	.	2r	.	2r	.	.
.	.	(8b\L	.	.	(8dd\L	.	(8gg\L	.	.	.	.	.	.	.	.
.	.	8cc\	.	.	8ee\	.	8aa\	.	.	.	.	.	.	.	.
.	.	8dd\J	.	.	8ff#\J	.	8bb\J	.	.	.	.	.	.	.	.
*	*	*v	*v	*	*	*	*	*	*	*	*	*	*	*	*
=41	=41	=41	=41	=41	=41	=41	=41	=41	=41	=41	=41	=41	=41	=41
1g\]	.	8ee\L)	.	8gg\L)	.	8ccc\L)	.	1ryy	.	1ryy	.	1ryy	.	.
.	.	8dd'\J	.	8ff#'\J	.	8bb'\J	.	.	.	.	.	.	.	.
.	.	2cc'\	.	2ee'\	.	2aa'\	.	.	.	.	.	.	.	.
.	.	4b'\	.	4dd\	.	([4gg\	.	.	.	.	.	.	.	.
=42	=42	=42	=42	=42	=42	=42	=42	=42	=42	=42	=42	=42	=42	=42
!	!	!	!	!LO:TX:t=P:problem=1cc poprawione na 2cc	!	!	!	!	!	!	!	!	!	!
(1d\	.	(1a\	.	(1cc\	.	4gg\]	.	1ryy	.	1ryy	.	1ryy	.	.
.	.	.	.	.	.	8ff#\L	.	.	.	.	.	.	.	.
.	.	.	.	.	.	8ee\J	.	.	.	.	.	.	.	.
.	.	.	.	.	.	8ff#\L)	.	.	.	.	.	.	.	.
.	.	.	.	.	.	(8dd\	.	.	.	.	.	.	.	.
.	.	.	.	.	.	8ddd\)	.	.	.	.	.	.	.	.
.	.	.	.	.	.	8ddd'\J	.	.	.	.	.	.	.	.
=43	=43	=43	=43	=43	=43	=43	=43	=43	=43	=43	=43	=43	=43	=43
4G\)	.	2g\)	.	2b\)	.	(8ddd\L	.	1ryy	.	1ryy	.	1ryy	.	.
.	.	.	.	.	.	8bb\J)	.	.	.	.	.	.	.	.
4GG/	.	.	.	.	.	4gg\	.	.	.	.	.	.	.	.
[2G\	.	8r	.	8r	.	8r	.	.	.	.	.	.	.	.
.	.	.	.	.	.	.	pp	.	.	.	.	.	.	.
.	.	8B/L	.	8d/L	.	(8g/L	.	.	.	.	.	.	.	.
.	.	8c/	.	8e/	.	8a/	.	.	.	.	.	.	.	.
.	.	8d/J	.	8f#/J	.	8b/J	.	.	.	.	.	.	.	.
=44	=44	=44	=44	=44	=44	=44	=44	=44	=44	=44	=44	=44	=44	=44
1G\]	.	8e\L	.	8g/L	.	8cc\L)	.	1ryy	.	1ryy	.	1ryy	.	.
.	.	8d\J	.	8f#/J	.	8b'\J	.	.	.	.	.	.	.	.
.	.	2c\	.	4e/	.	2a'/	.	.	.	.	.	.	.	.
.	.	.	.	4e-X/	.	.	.	.	.	.	.	.	.	.
.	.	4B\	.	4d/	.	[>4g/	.	.	.	.	.	.	.	.
!!LO:LB:g=original
=45	=45	=45	=45	=45	=45	=45	=45	=45	=45	=45	=45	=45	=45	=45
1D\	.	(1A/	.	(1c/	.	(>4g/]	.	1ryy	.	1ryy	.	1ryy	.	.
.	.	.	.	.	.	8f#/L	.	.	.	.	.	.	.	.
.	.	.	.	.	.	8e/J)	.	.	.	.	.	.	.	.
.	.	.	.	.	.	8f#/L	.	.	.	.	.	.	.	.
.	.	.	.	.	.	(8d/	.	.	.	.	.	.	.	.
.	.	.	.	.	.	8dd/)	.	.	.	.	.	.	.	.
.	.	.	.	.	.	8f#'/J	.	.	.	.	.	.	.	.
=46	=46	=46	=46	=46	=46	=46	=46	=46	=46	=46	=46	=46	=46	=46
4GG/	.	4G/)	.	4B/)	.	4g/	.	1ryy	.	1ryy	.	1ryy	.	.
4r	.	4r	.	4r	.	4r	.	.	.	.	.	.	.	.
!LO:TX:b:t=pizz	!	!	!	!	!	!LO:TX:rj:b:t=ppiz&colon;	!LO:HP:a:t=dim	!	!	!	!	!	!	!
8D/	.	8d/ 8G/	.	8B/	.	8g/	>	.	.	.	.	.	.	.
8r	.	8r	.	8r	.	8r	.	.	.	.	.	.	.	.
8BB/	.	8d/ 8G/	.	8B/	.	8g/	.	.	.	.	.	.	.	.
8r	.	8r	.	8r	.	8r	.	.	.	.	.	.	.	.
=47	=47	=47	=47	=47	=47	=47	=47	=47	=47	=47	=47	=47	=47	=47
!LO:TX:b:t=arco	!	!	!	!	!	!LO:TX:b:t=arco	!	!	!	!	!	!	!	!
1GG/;	.	1d/ 1G/;	.	1B/;	.	1g/;	.	1ryy	.	1ryy	.	1ryy	.	.
==	==	==	==	==	==	==	==	==	==	==	==	==	==	==
*-	*-	*-	*-	*-	*-	*-	*-	*-	*-	*-	*-	*-	*-	*-
!!!system-decoration: [(s1,s2,s3)][(s4,s5,s6,s7)]
!!!RDF**kern: > = above
!!!RDF**kern: < = below
!!!RDF**kern: | = vertical stroke
!!!EED: Leszek Kubiak
!!!EEV: 2021-04-27
!!!ENC: Katarzyna Serwa
!!!END: 2021-04-14
!!!YEC: Copyright 2022 Narodowy Instytut Fryderyka Chopina (https://polishscores.org)
!!!YEM: License CC-BY-4.0 (https://creativecommons.org/licenses/by/4.0)
